assets/images/LOGO.svg

<svg fill="none" height="49" viewBox="0 0 85 49" width="85" xmlns="http://www.w3.org/2000/svg"><g fill="#fff"><path d="m21.0685 6.80903h-13.94227v14.05737h-7.12623v13.8377.2275h7.12623l.00057 14.0684 13.9417-.0189v-7.2294h-7.1702v-9.263h7.2518v-7.2483h-7.189v-7.2483h7.189v7.2483l42.7411.0189v-7.2483h7.189v7.2483h-7.189v7.2483l7.1742-.0189-.0001 9.263h-7.1741v7.2483h13.9423v-14.0684h7.1665v-.0079-7.0287-7.0286h-7.1665v-14.05737h-13.9423v-6.80903h-42.8227z"/><path d="m50.9578 37.5595h7.1703v7.2295h-7.1703z"/><path d="m37.0155 41.9524h11.3281v7.0476l-11.3281-.0189z"/><path d="m27.231 37.5595h7.1703v7.2295h-7.1703z"/></g></svg>

<svg width="85" height="49" viewBox="0 0 85 49" fill="none" xmlns="http://www.w3.org/2000/svg">
<path d="M21.0685 6.80903H7.12623V20.8664H0V34.7041V34.9316H7.12623L7.1268 49L21.0685 48.9811V41.7517H13.8983L13.8983 32.4887H21.1501V25.2404H13.9611V17.9921H21.1501V25.2404L63.8912 25.2593V18.011H71.0802V25.2593H63.8912V32.5076L71.0654 32.4887L71.0653 41.7517H63.8912V49L77.8335 49V34.9316H85V34.9237V27.895V20.8664H77.8335V6.80903H63.8912V0H21.0685V6.80903Z" fill="white"/>
<path d="M50.9578 37.5595H58.1281V44.789H50.9578V37.5595Z" fill="white"/>
<path d="M37.0155 41.9524H48.3436V49L37.0155 48.9811V41.9524Z" fill="white"/>
<path d="M27.231 37.5595H34.4013V44.789H27.231V37.5595Z" fill="white"/>
</svg>
